brandFactory_export/3.Masa/Veneno _3Masa.svg

<?xml version="1.0" encoding="UTF-8"?>
<svg width="24px" height="24px" viewBox="0 0 24 24" version="1.1" xmlns="http://www.w3.org/2000/svg" xmlns:xlink="http://www.w3.org/1999/xlink">
    <title>3.Masa/Veneno _3Masa</title>
    <g id="Symbols" stroke="none" stroke-width="1" fill="none" fill-rule="evenodd">
        <g id="3.Masa/Veneno-_3Masa" fill="#5CB615" fill-rule="nonzero">
            <path d="M12.0571429,15.7478992 C12.0705882,15.7378151 12.0806723,15.7310924 12.0941176,15.7243697 C12.1008403,15.7210084 12.1109244,15.7142857 12.1210084,15.7109244 C12.1445378,15.7008403 12.1647059,15.6941176 12.1882353,15.687395 C12.2588235,15.6705882 12.3327731,15.6672269 12.4,15.6840336 C12.4268908,15.6907563 12.4537815,15.697479 12.4806723,15.707563 L12.4840336,15.707563 C12.5109244,15.7176471 12.5344538,15.7310924 12.5579832,15.7478992 C12.6151261,15.7882353 12.6655462,15.8420168 12.702521,15.902521 C12.7159664,15.9226891 12.7361345,15.9394958 12.7428571,15.9630252 L12.7462185,15.9663866 L12.7529412,15.9764706 L12.7529412,15.9798319 L12.897479,16.3159664 C12.9210084,16.3764706 12.9344538,16.4403361 12.9344538,16.5042017 C12.9344538,16.692437 12.8268908,16.8705882 12.6420168,16.9478992 C12.5848739,16.9680672 12.5176471,16.9848739 12.4605042,16.9848739 C12.3764706,16.9848739 12.292437,16.9613445 12.2218487,16.9210084 C12.2117647,16.9176471 12.205042,16.9109244 12.1983193,16.9042017 C12.1747899,16.8907563 12.1546218,16.8739496 12.1344538,16.8571429 C12.0840336,16.8134454 12.0436975,16.7563025 12.0168067,16.6890756 L12.010084,16.6722689 L12.0067227,16.6756303 L12,16.6857143 C11.9697479,16.7630252 11.9193277,16.8268908 11.8588235,16.8739496 C11.8554622,16.8773109 11.8521008,16.8773109 11.8487395,16.8806723 L11.8184874,16.9008403 C11.8117647,16.9042017 11.805042,16.9109244 11.7983193,16.9142857 C11.7243697,16.9579832 11.6403361,16.9815126 11.5596639,16.9815126 C11.5193277,16.9815126 11.4823529,16.9747899 11.4453782,16.9647059 C11.4252101,16.9579832 11.4016807,16.9512605 11.3815126,16.9445378 L11.3781513,16.9445378 L11.3747899,16.9445378 L11.3714286,16.9445378 C11.3613445,16.9411765 11.3478992,16.9344538 11.3378151,16.9277311 C11.3109244,16.9109244 11.2907563,16.8907563 11.2638655,16.8739496 C11.2537815,16.8672269 11.2403361,16.8605042 11.2268908,16.8504202 C11.2235294,16.8470588 11.2168067,16.8436975 11.2134454,16.8403361 C11.189916,16.8168067 11.1764706,16.7865546 11.1596639,16.7596639 L11.1294118,16.7092437 C11.1092437,16.6722689 11.0957983,16.6352941 11.0857143,16.594958 C11.0789916,16.5680672 11.0756303,16.5378151 11.0756303,16.507563 C11.0756303,16.4470588 11.0857143,16.3865546 11.1092437,16.3294118 C11.1092437,16.3260504 11.112605,16.3226891 11.112605,16.3193277 L11.1193277,16.3058824 L11.1260504,16.2857143 L11.2571429,15.9630252 C11.307563,15.8453782 11.405042,15.7613445 11.5159664,15.7142857 C11.5193277,15.7142857 11.5193277,15.7109244 11.5226891,15.7109244 L11.5260504,15.7109244 C11.5327731,15.7109244 11.5394958,15.7109244 11.5428571,15.707563 C11.6268908,15.6773109 11.7176471,15.6705882 11.8084034,15.6907563 C11.8352941,15.697479 11.8621849,15.7042017 11.8857143,15.7142857 C11.9294118,15.7344538 11.9630252,15.7647059 12,15.7915966 C12.0235294,15.7747899 12.0403361,15.7613445 12.0571429,15.7478992 L12.0571429,15.7478992 Z M9.43529412,15.4352941 C9.39159664,15.4252101 9.34789916,15.405042 9.30756303,15.3848739 C9.26386555,15.3647059 9.22352941,15.3445378 9.18655462,15.3109244 C9.12605042,15.2470588 9.08907563,15.1731092 9.07226891,15.0957983 C9.06554622,15.0655462 9.05882353,15.0319328 9.05882353,15.0016807 C9.05882353,14.9915966 9.05210084,14.9815126 9.05210084,14.9714286 L9.05210084,14.9411765 C9.05882353,14.8268908 9.10588235,14.7159664 9.18655462,14.6319328 L9.57983193,14.2386555 L9.18655462,13.8453782 C9.11260504,13.7714286 9.06890756,13.6773109 9.05546218,13.5798319 C9.05210084,13.5563025 9.0487395,13.5294118 9.0487395,13.5058824 C9.0487395,13.502521 9.05210084,13.502521 9.05210084,13.4991597 C9.05210084,13.4722689 9.05546218,13.4420168 9.06218487,13.4151261 C9.0789916,13.3243697 9.11932773,13.2336134 9.18991597,13.1630252 C9.2605042,13.0957983 9.34453782,13.0554622 9.43193277,13.0352941 C9.4789916,13.0252101 9.52605042,13.0218487 9.57310924,13.0252101 C9.68067227,13.0352941 9.78823529,13.0789916 9.86890756,13.1596639 L10.2621849,13.5529412 L10.6554622,13.1596639 C10.7361345,13.0789916 10.8403361,13.0352941 10.9478992,13.0252101 C10.9915966,13.0218487 11.0386555,13.0218487 11.0823529,13.0319328 C11.1731092,13.0487395 11.2605042,13.092437 11.3344538,13.1596639 C11.4084034,13.2369748 11.4420168,13.3310924 11.4554622,13.4319328 C11.4588235,13.4453782 11.4588235,13.4554622 11.4621849,13.4689076 C11.4655462,13.4857143 11.4655462,13.502521 11.4655462,13.5226891 L11.4655462,13.5361345 C11.4588235,13.6504202 11.4184874,13.7579832 11.3344538,13.8420168 L10.9411765,14.2352941 L11.3344538,14.6285714 C11.4084034,14.702521 11.4521008,14.8 11.4655462,14.9008403 C11.4689076,14.9210084 11.4689076,14.9445378 11.4689076,14.9647059 C11.4689076,14.9848739 11.4655462,15.0084034 11.4588235,15.0285714 C11.4554622,15.0420168 11.4521008,15.0521008 11.4487395,15.0655462 C11.4319328,15.1529412 11.3983193,15.2403361 11.3310924,15.3109244 C11.297479,15.3411765 11.2571429,15.3613445 11.2201681,15.3815126 C11.1831933,15.4016807 11.1428571,15.4218487 11.1058824,15.4319328 C11.102521,15.4319328 11.0991597,15.4352941 11.092437,15.4352941 C11.0588235,15.4453782 11.0252101,15.4487395 10.9915966,15.4487395 C10.9042017,15.4487395 10.8201681,15.4184874 10.7428571,15.3680672 C10.7361345,15.3647059 10.7294118,15.3579832 10.7193277,15.3512605 C10.6957983,15.3344538 10.6722689,15.3277311 10.6521008,15.307563 L10.2621849,14.9142857 L9.87226891,15.307563 C9.8487395,15.3344538 9.81848739,15.3445378 9.78823529,15.3647059 L9.78487395,15.3647059 C9.70756303,15.4151261 9.62016807,15.4487395 9.53277311,15.4487395 C9.49579832,15.4453782 9.46554622,15.4420168 9.43529412,15.4352941 C9.46554622,15.4420168 9.49915966,15.4487395 9.52941176,15.4487395 C9.62016807,15.4487395 9.70420168,15.4151261 9.78151261,15.3647059 L9.78487395,15.3613445 L9.43529412,15.4352941 L9.43529412,15.4352941 Z M10.6319328,10.8907563 C9.62016807,11.2 8.39327731,12.0369748 8.39327731,14.2823529 C8.39327731,15.3915966 8.69915966,16.1647059 9.12605042,16.692437 C9.15966387,16.7327731 9.19327731,16.7697479 9.22689076,16.810084 C9.41848739,17.0218487 9.6302521,17.189916 9.8487395,17.3243697 L9.8487395,17.5831933 C9.8487395,17.6773109 9.85546218,17.7647059 9.87226891,17.8453782 C9.90252101,17.9966387 9.95630252,18.1277311 10.0403361,18.2319328 C10.0705882,18.2689076 10.1008403,18.302521 10.1378151,18.3327731 C10.3193277,18.497479 10.5781513,18.5815126 10.9109244,18.5815126 L13.0151261,18.5815126 C13.3512605,18.5815126 13.6067227,18.4941176 13.7915966,18.3327731 C13.8218487,18.3092437 13.8487395,18.2789916 13.8722689,18.2521008 C14.0067227,18.0907563 14.0705882,17.8621849 14.0705882,17.5865546 L14.0705882,17.3277311 C14.8436975,16.8470588 15.5226891,15.9563025 15.5226891,14.3058824 C15.5226891,13.0655462 15.1361345,12.2521008 14.6184874,11.7210084 C14.5277311,11.6268908 14.4302521,11.5428571 14.3327731,11.4655462 C13.5092437,10.8201681 12.497479,10.7327731 12.107563,10.7260504 C12.0941176,10.7260504 12.0840336,10.7226891 12.0705882,10.7226891 C11.9764706,10.7159664 11.8689076,10.7159664 11.7747899,10.7159664 C11.5529412,10.7193277 11.1462185,10.7428571 10.6890756,10.8773109 C10.6655462,10.8773109 10.6487395,10.8840336 10.6319328,10.8907563 L10.6319328,10.8907563 Z M8.7697479,4.83697479 C8.37310924,4.83697479 8.05378151,4.51428571 8.05378151,4.11764706 L8.05378151,2.8 C8.05378151,2.40336134 8.37647059,2.08067227 8.7697479,2.08067227 C9.16638655,2.08067227 9.48571429,2.40336134 9.48571429,2.8 L9.48571429,4.11764706 C9.48571429,4.51428571 9.16638655,4.83697479 8.7697479,4.83697479 Z M10.8168067,4.83697479 C10.4201681,4.83697479 10.1008403,4.51428571 10.1008403,4.11764706 L10.1008403,2.8 C10.1008403,2.40336134 10.4235294,2.08067227 10.8168067,2.08067227 C11.2134454,2.08067227 11.5327731,2.40336134 11.5327731,2.8 L11.5327731,4.11764706 C11.5327731,4.51428571 11.2134454,4.83697479 10.8168067,4.83697479 Z M12.8638655,4.83697479 C12.4672269,4.83697479 12.1478992,4.51428571 12.1478992,4.11764706 L12.1478992,2.8 C12.1478992,2.40336134 12.4705882,2.08067227 12.8638655,2.08067227 C13.2605042,2.08067227 13.5798319,2.40336134 13.5798319,2.8 L13.5798319,4.11764706 C13.5831933,4.51428571 13.2605042,4.83697479 12.8638655,4.83697479 Z M14.9142857,4.83697479 C14.5176471,4.83697479 14.1983193,4.51428571 14.1983193,4.11764706 L14.1983193,2.8 C14.1983193,2.40336134 14.5210084,2.08067227 14.9142857,2.08067227 C15.3109244,2.08067227 15.6302521,2.40336134 15.6302521,2.8 L15.6302521,4.11764706 C15.6302521,4.51428571 15.307563,4.83697479 14.9142857,4.83697479 Z M5.49579832,8.8605042 L18.2621849,8.8605042 C18.107563,7.78823529 17.5932773,7.06554622 16.7327731,6.72268908 C16.4840336,6.86722689 16.194958,6.96134454 15.8823529,6.96134454 L7.79159664,6.96134454 C7.50588235,6.96134454 7.24705882,6.87394958 7.00840336,6.74957983 C6.72268908,6.87394958 6.46386555,7.01848739 6.25546218,7.22016807 C5.8487395,7.61344538 5.59327731,8.16134454 5.49579832,8.8605042 Z M15.2302521,22.2184874 C16.7966387,22.2184874 17.7647059,21.5966387 18.1378151,20.3663866 L5.62016807,20.3663866 C5.75462185,20.8067227 5.96302521,21.1731092 6.25210084,21.4621849 C6.76638655,21.9596639 7.54285714,22.2184874 8.54453782,22.2184874 L15.2302521,22.2184874 Z M7.53277311,1.74117647 L7.53277311,5.25378151 C7.53277311,5.39831933 7.64705882,5.52268908 7.79159664,5.52268908 L15.8823529,5.52268908 C16.0369748,5.52268908 16.1512605,5.39831933 16.1512605,5.25378151 L16.1512605,1.74117647 C16.1512605,1.59663866 16.0369748,1.47226891 15.8823529,1.47226891 L7.79159664,1.47226891 C7.64705882,1.47226891 7.53277311,1.59663866 7.53277311,1.74117647 L7.53277311,1.74117647 Z M17.5630252,5.50252101 C18.9781513,6.20168067 19.7512605,7.63361345 19.7512605,9.57983193 L19.7411765,19.0890756 C19.7411765,21.9495798 18.0504202,23.6571429 15.2302521,23.6571429 L8.54453782,23.6571429 C7.15630252,23.6571429 6.05042017,23.2638655 5.25714286,22.497479 C4.42689076,21.6907563 4.00336134,20.5512605 4.00336134,19.092437 L4.00336134,9.57983193 C4.00336134,8.13109244 4.42352941,6.99159664 5.26722689,6.18151261 C5.51596639,5.93277311 5.81176471,5.74117647 6.12773109,5.56638655 C6.11092437,5.47226891 6.10084034,5.35462185 6.10084034,5.25042017 L6.10084034,1.73781513 C6.10084034,0.796638655 6.85714286,0.0302521008 7.79159664,0.0302521008 L15.8823529,0.0302521008 C16.8201681,0.0302521008 17.5865546,0.796638655 17.5865546,1.73781513 L17.5865546,5.25042017 C17.5831933,5.33781513 17.5731092,5.42521008 17.5630252,5.50252101 L17.5630252,5.50252101 Z M12.6487395,13.8420168 C12.5579832,13.7512605 12.5109244,13.6268908 12.5109244,13.502521 C12.5109244,13.4991597 12.5142857,13.4991597 12.5142857,13.4957983 C12.5176471,13.3747899 12.5613445,13.2537815 12.6487395,13.1596639 C12.8403361,12.9781513 13.1462185,12.9781513 13.3277311,13.1596639 L13.7210084,13.5529412 L14.1142857,13.1596639 C14.2957983,12.9781513 14.6016807,12.9781513 14.7932773,13.1596639 C14.8571429,13.2302521 14.8907563,13.3142857 14.9109244,13.4016807 C14.9243697,13.4588235 14.9277311,13.5159664 14.9176471,13.5731092 C14.9008403,13.6705882 14.8672269,13.7680672 14.7932773,13.8386555 L14.4,14.2319328 L14.7932773,14.6252101 C14.8739496,14.7058824 14.9142857,14.8134454 14.9210084,14.9210084 C14.9277311,14.9781513 14.9210084,15.0319328 14.9042017,15.0890756 C14.8840336,15.1663866 14.8504202,15.2436975 14.789916,15.307563 C14.7563025,15.3378151 14.7193277,15.3546218 14.6789916,15.3747899 C14.605042,15.4151261 14.5277311,15.4453782 14.4470588,15.4453782 C14.3495798,15.4453782 14.2588235,15.4084034 14.1747899,15.3478992 C14.1546218,15.3344538 14.1277311,15.3243697 14.107563,15.307563 L13.7142857,14.9142857 L13.3210084,15.307563 C13.2941176,15.3310924 13.2672269,15.3445378 13.2403361,15.3579832 C13.1630252,15.4084034 13.0756303,15.4420168 12.9848739,15.4420168 C12.907563,15.4420168 12.8336134,15.4184874 12.7630252,15.3781513 C12.7193277,15.3579832 12.6789916,15.3378151 12.6420168,15.3042017 C12.5613445,15.2168067 12.5210084,15.1058824 12.5109244,14.9915966 C12.5109244,14.9815126 12.5042017,14.9714286 12.5042017,14.9613445 C12.5042017,14.8369748 12.5512605,14.712605 12.6420168,14.6218487 L13.0352941,14.2285714 L12.6487395,13.8420168 Z" id="Veneno-_3Masa"></path>
        </g>
    </g>
</svg>

<svg width="24" height="24" viewBox="0 0 24 24" xmlns="http://www.w3.org/2000/svg"><path d="M12.057 15.748a.226.226 0 01.037-.024c.007-.003.017-.01.027-.013a.452.452 0 01.279-.027.73.73 0 01.08.024h.004c.027.01.05.023.074.04a.53.53 0 01.145.155c.013.02.033.036.04.06l.003.003.007.01v.004l.144.336c.024.06.037.124.037.188a.477.477 0 01-.712.417c-.01-.003-.017-.01-.024-.017a.447.447 0 01-.181-.215l-.007-.017-.003.004-.007.01a.444.444 0 01-.141.188c-.004.003-.007.003-.01.007l-.03.02c-.007.003-.014.01-.02.013a.475.475 0 01-.24.068.427.427 0 01-.114-.017l-.063-.02h-.011a.157.157 0 01-.033-.017c-.027-.017-.047-.037-.074-.054-.01-.007-.024-.013-.037-.024l-.014-.01c-.023-.023-.037-.053-.053-.08l-.03-.05a.472.472 0 01-.044-.115.466.466 0 01.024-.266c0-.003.003-.006.003-.01l.006-.013.007-.02.131-.323a.48.48 0 01.259-.249c.003 0 .003-.003.007-.003h.003c.007 0 .013 0 .017-.003a.475.475 0 01.265-.017c.027.006.054.013.078.023.043.02.077.05.114.078.024-.017.04-.03.057-.044zm-2.622-.313a.594.594 0 01-.127-.05.45.45 0 01-.121-.074.449.449 0 01-.115-.215.454.454 0 01-.013-.094c0-.01-.007-.02-.007-.03v-.03a.49.49 0 01.135-.31l.393-.393-.393-.394a.464.464 0 01-.132-.265.55.55 0 01-.006-.074c0-.003.003-.003.003-.007 0-.027.003-.057.01-.084a.477.477 0 01.128-.252.514.514 0 01.383-.138.48.48 0 01.296.135l.393.393.393-.393a.472.472 0 01.427-.128c.091.017.179.06.252.128a.468.468 0 01.121.272c.004.013.004.023.007.037a.272.272 0 01.004.054v.013a.46.46 0 01-.132.306l-.393.393.393.394a.472.472 0 01.132.272c.003.02.003.044.003.064 0 .02-.003.043-.01.064l-.01.037a.478.478 0 01-.118.245c-.034.03-.074.05-.11.07a.565.565 0 01-.115.05c-.003 0-.007.004-.014.004a.347.347 0 01-.1.014.456.456 0 01-.25-.08l-.023-.018c-.023-.017-.047-.023-.067-.043l-.39-.394-.39.394c-.023.026-.054.037-.084.057h-.003a.47.47 0 01-.252.084.759.759 0 01-.004 0c.091 0 .175-.034.253-.084l.003-.004-.35.074zm1.197-4.544c-1.012.309-2.239 1.146-2.239 3.391 0 1.11.306 1.883.733 2.41l.1.118c.192.212.404.38.623.514v.26c0 .093.006.18.023.261.03.152.084.283.168.387.03.037.06.07.098.1.181.165.44.25.773.25h2.104c.336 0 .592-.088.777-.25a.61.61 0 00.08-.08c.135-.161.199-.39.199-.665v-.26c.773-.48 1.452-1.37 1.452-3.021 0-1.24-.387-2.054-.905-2.585a2.881 2.881 0 00-.285-.255c-.824-.646-1.836-.733-2.225-.74-.014 0-.024-.003-.037-.003-.095-.007-.202-.007-.296-.007a4.117 4.117 0 00-1.086.161c-.023 0-.04.007-.057.014zM8.77 4.837a.717.717 0 01-.716-.72V2.8a.72.72 0 01.716-.72c.396 0 .716.323.716.72v1.318c0 .396-.32.719-.716.719zm2.047 0a.717.717 0 01-.716-.72V2.8a.72.72 0 01.716-.72c.396 0 .716.323.716.72v1.318c0 .396-.32.719-.716.719zm2.047 0a.717.717 0 01-.716-.72V2.8a.72.72 0 01.716-.72c.397 0 .716.323.716.72v1.318a.715.715 0 01-.716.719zm2.05 0a.717.717 0 01-.716-.72V2.8a.72.72 0 01.716-.72c.397 0 .716.323.716.72v1.318a.72.72 0 01-.716.719zM5.496 8.861h12.766c-.154-1.073-.669-1.795-1.53-2.138a1.691 1.691 0 01-.85.238h-8.09c-.286 0-.545-.087-.784-.211-.285.124-.544.268-.753.47-.406.393-.662.941-.76 1.64zm9.734 13.357c1.567 0 2.535-.621 2.908-1.852H5.62c.135.44.343.807.632 1.096.514.498 1.29.756 2.293.756h6.685zM7.533 1.741v3.513c0 .144.114.269.259.269h8.09a.268.268 0 00.27-.27V1.742a.268.268 0 00-.27-.269h-8.09a.266.266 0 00-.26.27zm10.03 3.762c1.415.699 2.188 2.13 2.188 4.077l-.01 9.51c0 2.86-1.69 4.567-4.51 4.567H8.544c-1.389 0-2.495-.393-3.288-1.16-.83-.806-1.254-1.946-1.254-3.405V9.58c0-1.449.42-2.588 1.264-3.398.249-.25.545-.44.86-.616a1.907 1.907 0 01-.026-.316V1.738A1.7 1.7 0 017.79.03h8.091a1.71 1.71 0 011.705 1.708V5.25a2.8 2.8 0 01-.024.253zm-4.914 8.339a.48.48 0 01-.138-.34c0-.003.003-.003.003-.006a.513.513 0 01.135-.336.491.491 0 01.679 0l.393.393.393-.393a.491.491 0 01.68 0c.063.07.097.154.117.242a.422.422 0 01.007.171.466.466 0 01-.125.266l-.393.393.393.393c.08.08.121.188.128.296a.41.41 0 01-.017.168.49.49 0 01-.114.219c-.034.03-.07.047-.111.067a.49.49 0 01-.232.07.465.465 0 01-.272-.097c-.02-.014-.047-.024-.067-.04l-.394-.394-.393.394a.354.354 0 01-.08.05.472.472 0 01-.256.084.445.445 0 01-.222-.064.45.45 0 01-.121-.074.521.521 0 01-.131-.312c0-.01-.007-.02-.007-.03a.48.48 0 01.138-.34l.393-.393-.386-.387z" fill="#5CB615" fill-rule="nonzero"/></svg>
